X:1
T:Étude Op. 10 No. 5 in G♭ major
T:Étude Op. 10 No. 5 in G♭ major
T:"Black Keys"
T:Frédéric Chopin
C:Frédéric Chopin
%%score { ( 1 4 ) | ( 2 3 ) }
L:1/8
Q:1/4=116
M:2/4
K:Gb
V:1 treble nm="鋼琴" snm="Pno."
V:4 treble 
V:2 bass 
V:3 bass 
V:1
"^Vivace""^brillante"!f!!8va(! (3(g'/b'/d'/ (3g'/e'/g'/ (3d'/g'/b/!8va)! (3d'/g/b/ | %1
!p! (3g/b/d/ (3g/e/g/ (3d/g/B/ (3d/G/B/) | %2
"^sempre legato" (3D/d/A/ (3d/A/a/"_cresc." (3A/a/e/ (3a/e/e'/ | %3
 (3e/e'/a/!8va(! (3e'/a/a'/ (3a/a'/d'/ (3a'/d'/d''/ | %4
!f! (3g'/b'/d'/ (3g'/e'/g'/ (3d'/g'/b/!8va)! (3d'/g/b/ |!p! (3g/b/d/ (3g/e/g/ (3d/g/B/ (3d/G/B/ | %6
 (3E/e/A/ (3e/A/!<(!a/ (3e/a/e/!8va(! (3e'/a/a'/!<)! | %7
[Q:1/4=80]"_poco rall." (3b/b'/b/!>(! (3b'/b/b'/ (3b/b'/b/!>)!!pp! (3b'/b/b'/ | %8
[Q:1/4=116]"^a tempo"!f! (3g'/b'/d'/ (3g'/e'/g'/ (3d'/g'/b/!8va)! (3d'/g/b/ | %9
!p! (3g/b/d/ (3g/e/g/ (3d/g/B/ (3d/G/B/ | (3D/d/A/ (3d/A/a/"_cresc." (3A/a/e/ (3a/e/e'/ | %11
 (3e/e'/a/!8va(! (3e'/a/a'/ (3a/a'/d'/ (3a'/d'/d''/ | %12
!f! (3g'/b'/d'/ (3g'/e'/g'/ (3d'/g'/b/!8va)! (3d'/g/b/ |!p! (3g/b/d/ (3g/e/g/ (3d/g/B/ (3d/G/B/ | %14
 (3E/e/A/ (3e/A/a/"_cresc." (3e/a/e/ (3e'/a/e'/ | %15
 (3e/e'/a/ (3e'/d/d'/ (3a/d'/a/!8va(! (3a'/d'/d''/ | %16
!p! (3a'/b'/a'/ (3e'/e''/e'/!>(! (3d'/e'/d'/!>)! (3a/a'/a/!8va)! | %17
!>(! (3a/b/a/!>)! (3e/e'/e/ (3d/e/d/!>!A- | (3A/e/a/ (3b/a/e/ (3d/a/d'/ (3e'/d'/b/ | %19
!8va(! (3a/e'/a'/ (3b'/a'/e'/ (3d'/a'/d''/ (3e''/d''/b'/ | %20
 (3a'/b'/a'/ (3e'/e''/e'/!>(! (3d'/e'/d'/!>)! (3a/a'/a/!8va)! | %21
!>(! (3a/b/a/!>)! (3e/e'/e/ (3d/e/d/!>!A- | (3A/(a/g/ (3a/g/a/ (3g'/)(a/g/ (3a/g/a/ | %23
 (3A/)(a/g/ (3a/g/a/ (3g'/)(a/g/ (3a/g/a/ | %24
 (3B/)(b/g/ (3b/g/b/"_poco a poco cresc." (3g'/)(b/g/ (3b/g/b/ | %25
 (3B/)(b/g/ (3b/g/b/ (3g'/)(b/g/ (3b/g/b/ | (3g/)(b/g/ (3.b'/b/g/ (3.a'/b/g/ (3.g'/b/g/ | %27
 (3.d'/)(b/g/ (3.b'/b/g/ (3.a'/b/g/ (3.g'/b/g/ | %28
 (3d/)(d'/b/!8va(! (3d'/d'/d''/"_crescendo" (3b'/)(d''/d'/!8va)! (3d'/b/d'/ | %29
 (3d/)(d'/b/!8va(! (3d'/d'/d''/ (3b'/)(d''/d'/!8va)! (3d'/b/d'/ | %30
 (3d/)(d'/b/!8va(! (3d'/d'/d''/ (3b'/)(d''/d'/!8va)! (3d'/b/d'/ | %31
 (3d/)(d'/g/ (3d'/d/d/ (3G/)(d/D/[I:staff +1] (3D/G,/D/) | %32
!f!"^sempre legatissimo" (3(E,/G,/D/!<(![I:staff -1] (3E/G,/D/ (3E/G/D/ (3E/G/d/ | %33
 (3E/G/d/ (3e/G/d/ (3e/g/d/ (3e/d'/g/!<)! |!>(! (3e/g/e'/ (3d'/g/e/ (3d'/g/e/ (3d/g/e/ | %35
 (3d/G/e/!>)!"_dimin." (3d/G/E/ (3d/G/E/ (3D/G/E/) | (3(A,/!<(!E/G/ (3A/E/G/ (3A/e/G/ (3A/e/g/ | %37
 (3A/e/g/ (3a/e/g/ (3a/e'/g/ (3a/g'/e'/!<)! |!>(! (3a/g/e'/ (3a/g/e/ (3a/g/e/ (3A/g/e/ | %39
 (3A/G/e/!>)!"_dim." (3A/G/E/ (3A/G/E/ (3A,/G/E/) |!p! (3(D/d/A/ (3d/A/a/ (3d/a/A/ (3d/A/d/ | %41
 (3D/d/A/ (3d/A/a/ (3d/a/A/ (3d/A/d/) |"^sempre legato" (3D/d/A/ (3d/d/d'/ (3a/d'/d/ (3d/A/d/ | %43
 (3A/a/d/"_cresc." (3a/a/a'/ (3d'/a'/a/ (3a/d/a/ | %44
 (3d/e/d/!8va(! (3e'/d'/e''/ (3d''/e''/d''/ (3d'/e'/d'/!8va)! | %45
 (3d/e/d/!8va(! (3e'/d'/e''/ (3d''/e''/d''/ (3d'/e'/d'/ | %46
 (3d''/e''/d''/ (3d'/e'/d'/ (3d''/e''/d''/ (3d'/e'/d'/ | %47
 (3d''/e''/d''/ (3d'/e'/d'/ (3d''/e''/d''/ (3d'/e'/d'/ | %48
!f! (3g'/b'/d'/ (3g'/e'/g'/ (3d'/g'/b/!8va)! (3d'/g/b/ |!p! (3g/b/d/ (3g/e/g/ (3d/g/B/ (3d/G/B/ | %50
 (3D/d/A/ (3d/A/a/"_cresc." (3A/a/e/ (3a/e/e'/ | %51
 (3e/e'/a/!8va(! (3e'/a/a'/ (3a/a'/d'/ (3a'/d'/d''/ | %52
!f! (3g'/b'/d'/ (3g'/e'/g'/ (3d'/g'/b/!8va)! (3d'/g/b/ |!p! (3g/b/d/ (3g/e/g/ (3d/g/B/ (3d/G/B/ | %54
 (3E/e/A/ (3e/A/a/"_crescendo" (3B/b/B/ (3b/B/b/ | %55
 (3e/e'/a/!8va(! (3e'/a/a'/ (3b/!>!b'/b/ (3b'/b/b'/ | %56
 (3!>!b/b'/e'/ (3b'/a/a'/ (3!>!a/a'/d'/ (3a'/g/g'/!8va)! | %57
 (3!>!d/d'/a/!8va(! (3d'/a/a'/ (3!>!g/g'/d'/ (3g'/d'/d''/ | %58
 (3!>!b/b'/e'/ (3b'/a/a'/ (3!>!a/a'/d'/ (3a'/g/g'/!8va)! | %59
 (3!>!d/d'/a/!8va(! (3d'/a/a'/ (3!>!g/g'/d'/ (3g'/d'/d''/ | %60
 (3!>!b/b'/e'/ (3b'/a/a'/ (3!>!b/b'/e'/ (3b'/a/a'/ | %61
 (3b/b'/e'/ (3b'/a/a'/"_crescendo" (3b/b'/e'/ (3b'/a/a'/ | %62
 (3(d'/b'/a/ (3a'/d'/b'/ (3a/a'/d'/ (3b'/a/a'/ | %63
 (3d'/b'/a/ (3a'/d'/b'/[Q:1/4=70]"_poco rallent." (3a/a'/d'/ (3b'/a/a'/ | %64
 (3:2:4e''/)z/4!pp!(d''/4b'/"_delicato" (3a'/g'/e'/!8va)! (3d'/b/a/[Q:1/4=60]"_smorz." (3g/e/d/ | %65
 A2 B>A |[Q:1/4=116]"^a tempo"!p! G) z"_legato"!8va(! (3a'/b'/a'/ (3d'/d''/d'/ | %67
 (3d'/e'/d'/ (3g/g'/g/!8va)! (3a/b/a/!>!d- | (3d/g/a/ (3b/a/g/"_poco cresc." (3d/a/d'/ (3e'/d'/a/ | %69
!8va(! (3g/d'/g'/ (3a'/g'/e'/ (3d'/a'/d''/ (3e''/d''/a'/ | %70
!p! (3g'/a'/g'/ (3d'/d''/d'/ (3d'/e'/d'/ (3a/a'/a/!8va)! | (3a/b/a/ (3g/g'/g/ !>!d2- | %72
 (3d/g/a/ (3b/a/g/"_poco cresc." (3d/a/d'/ (3e'/d'/a/ | %73
!8va(! (3g/d'/g'/ (3a'/g'/e'/ (3a/d'/a'/ (3b'/a'/d'/ | %74
!f! (3b'/d'/a'/ (3b/a'/d'/ (3g'/b/e'/!8va)! (3a/d'/d/ | (3b/d/a/ (3B/a/d/ (3g/B/e/ (3A/d/D/ | %76
 (3B/D/A/ (3B,/A/D/ (3G/B,/E/[K:bass] (3A,/D/D,/ | (3B,/G,/E/ (3D,/D/A,/ (3B,/G,/E/ (3D,/D/A,/ | %78
 .B, (3(!>![B,D]/A,/G,/)[K:treble] (3(!>![EG]/D/B,/) (3(!>![GB]/E/D/) | %79
 (3(!>![Bd]/A/G/) (3(!>![eg]/d/B/) (3(!>![gb]/e/d/) (3(!>![bd']/a/g/) | %80
!8va(! (3(!>![e'g']/d'/b/)"_crescendo" (3([g'b']/e'/d'/) (3([e'g']/d'/b/) (3([g'b']/e'/d'/) | %81
 (3([e'g']/d'/b/) (3([g'b']/e'/d'/) (3([e'g']/d'/b/) (3([g'b']/e'/d'/) | %82
 (3.[bg']/!8va)! z/!ff! .[gg']/ (3.[ee']/.[dd']/.[Bb]/ (3.[Aa]/.[Gg]/.[Ee]/ (3.[Dd]/.[B,B]/.[A,A]/ | %83
 .[G,G] z!8va(! !arpeggio![bd'g'b']2!8va)! |[K:bass][Q:1/4=80]"_." !fermata!G,4 |] %85
V:2
 .[G,B,DG].[G,CEG].[G,B,DG] z |!ped! .[G,,G,] .[CEG]!ped-up!.[B,DG] z | %2
!ped! .[D,,D,] .[A,DF]!ped-up!!ped!.[A,CE] .A,,!ped-up! | %3
!ped! z !>!.[A,CE]!ped-up!!ped!.[A,CD] z!ped-up! | .[G,B,DG].[G,CEG].[G,B,DG] z | %5
!ped! .[G,,G,] .[CEG]!ped-up!.[B,DG] z |!ped! .C, !>![A,E]2 .C,!ped-up! | %7
!ped! !arpeggio![B,,F,=D][K:treble] !arpeggio![B,F=d] z2!ped-up! | .[G,B,DG].[G,CEG].[G,B,DG] z | %9
[K:bass]!ped! .[G,,G,] .[CEG]!ped-up!.[B,DG] z | %10
!ped! .[D,,D,] .[A,DF]!ped-up!!ped!.[A,CE] .A,,!ped-up! | %11
!ped! z !>!.[A,CE]!ped-up!!ped!.[A,CD] z!ped-up! | .[G,B,DG].[G,CEG].[G,B,DG] z | %13
!ped! .[G,,G,] .[CEG]!ped-up!.[B,DG] z |!ped! .=C, !>![A,G]2 .A,,!ped-up! | %15
!ped! .D,.[A,F] z2!ped-up! |[K:treble] ([=CGA][A,GA]) (!>![DFB][A,FA]) | %17
 (!>![=CGB][A,GA]) ([DF]A,) |[K:bass]!ped! .=C, .[A,EG]!ped-up!!ped!.[A,DF] .D,!ped-up! | %19
!ped! .A,,.[A,=CG]!ped-up!!ped! .D,,.[A,DF]!ped-up! | %20
!ped! .A,,[K:treble] .[=CGA]!ped-up!(!>![DFB][A,FA]) | (!>![=CGB][A,GA]) ([DF]A,) | %22
[K:bass]!ped! .=C,.[A,EG] z (=C,,!ped-up! | .=C,).[A,EG] z ([=C,,C,] | %24
!ped! .[D,,D,]) .[B,DG]!ped-up! ([=C,,=C,][D,,D,] | %25
!ped! .[=D,,=D,]) .[B,G]!ped-up! ([^C,,^C,][D,,D,] |!ped! .[E,,E,]) !>![B,G]2 ([E,,E,]!ped-up! | %27
!ped! [_F,,_F,]) !>![B,G]2 ([=E,,=E,]!ped-up! |!ped! .[=F,,=F,]).[B,DF]!ped-up! ([=E,,=E,][F,,F,] | %29
!ped! [G,,G,])[B,D_F]!ped-up! ([=F,,F,][G,,G,] | %30
!ped! .[=G,,=G,]).[G,D_F]!ped-up!!ped! .[A,,A,].[A,D=F]!ped-up! | %31
!ped! .[__B,,__B,].[B,EG] z !>![__B,,,B,,]!ped-up! |!ped! [A,,,A,,]4 | z2 [A,DG]>[A,DG] | [A,DG]4 | %35
 z4!ped-up! |!ped! [A,,,A,,]4 | z2[K:treble] [A,=CGA]>[A,CGA] | [A,=CGA]4 | z4!ped-up! | %40
[K:bass]!ped! .D,, z ([A,F]2- | [A,F]2!ped-up! [=G,=E]>[A,F] |!ped! .D,) z ([A,F]2- | %43
 [A,F]2!ped-up! [=G,=E]>[A,F] |!ped! .D,)[K:treble]!<(! ([A,DF]!ped-up![__B,D_G][_B,D=G]!<)! | %45
!>(! [CDA]2 [B,D=G][__B,D_G]!>)! |!ped! .[A,CF])[K:bass] .D,[K:treble]!<(! (A!ped-up!B!<)! | %47
!>(! c2!>)! BA) | .[G,B,DG].[G,CEG].[G,B,DG] z |[K:bass]!ped! .[G,,G,] .[CEG]!ped-up!.[B,DG] z | %50
!ped! .[D,,D,] .[A,DF]!ped-up!!ped!.[A,CE] .A,,!ped-up! |!ped! z !>!.[A,CE]!ped-up!.[A,CD] z | %52
 .[G,B,DG].[G,CEG].[G,B,DG] z |!ped! .[G,,G,] .[CEG]!ped-up!.[B,DG] z | %54
!ped! .C,!>(!([A,E]!ped-up!!>)!!ped! [F,B,=D])(B,,!ped-up! | %55
!ped! .C,)!>(!([A,E]!ped-up!!>)!!ped! [F,B,=D]).B,,!ped-up! | %56
!ped! .C,[K:treble].[CEA]!ped-up![K:bass]!ped! ._D,[K:treble].[B,DG]!ped-up! | %57
[K:bass]!ped! .C,[K:treble].[CDFA]!ped-up![K:bass]!ped! .B,,[K:treble].[B,DGB]!ped-up! | %58
[K:bass]!ped! .C,[K:treble].[CEA]!ped-up![K:bass]!ped! .D,[K:treble].[B,DG]!ped-up! | %59
[K:bass]!ped! .C,[K:treble].[CDFA]!ped-up![K:bass]!ped! .B,,[K:treble].[B,DGB]!ped-up! | %60
[K:bass]!ped! .C, !>![A,EA]2 .C,!ped-up! |!ped! .=C, !>![A,EGA]2 .C,!ped-up! | %62
!ped! D,2[K:treble] [A,DGA]2!ped-up! | [GAd]2 z2 |[K:bass]!ped!{/D,,} !arpeggio![D,A,DG]4!ped-up! | %65
!ped! [D,A,C]4!ped-up! |[K:treble] ([B,G]D)([CA][A,F] | [B,G]D)([CA][A,F] | %68
[K:bass] [G,B,G]) z ([F,CE][D,D]) | ([G,B,E][D,D]) ([F,CE][D,D]) |[K:treble] ([B,G]D)([CA][A,F] | %71
 [B,G]D)([CA][A,F] |[K:bass] [G,B,G]D) (!>![F,CE][D,D]) | (!>![G,B,E][D,D]) (!>![F,CE][D,D]) | %74
[K:treble] !arpeggio![G,DB]2 z[K:bass] (!>![D,A,CF] | [G,B,G]2) z (!>![D,,C,F,] | %76
 [G,,B,,G,]2) z (D,, | .[G,,,G,,]).D,,.[G,,,G,,].D,, | .[G,,,G,,] z z (3(G,,/D,/B,/) | %79
 (3(G,,/D,/B,/) (3(B,,/G,/D/) (3(D,/B,/G/)[K:treble] (3(G,/D/B/) | %80
 (3(B,/G/d/) (3(D/B/g/) (3(G/B/g/) (3(D/B/g/) | (3(G/B/g/) (3(D/B/g/) (3(G/B/g/) (3(D/B/g/) | %82
 (3.G/ z/[K:bass] .[G,G]/ (3.[E,E]/.[D,D]/.[B,,B,]/ (3.[A,,A,]/.[G,,G,]/.[E,,E,]/ (3.[D,,D,]/.[B,,,B,,]/.[A,,,A,,]/ | %83
!ped! .[G,,,G,,] z[K:treble] !arpeggio![G,DB]2!ped-up! |[K:bass] !fermata![G,,,G,,]4 |] %85
V:3
 x4 | x4 | x4 | D,3 z | x4 | x4 | x4 | x[K:treble] x3 | x4 |[K:bass] x4 | x4 | D,3 z | x4 | x4 | %14
 x4 | x4 |[K:treble] x4 | x4 |[K:bass] x4 | x4 | x[K:treble] x3 | x4 |[K:bass] x4 | x4 | x4 | x4 | %26
 x4 | x4 | x4 | x4 | x4 | x4 | x4 | x4 | x4 | x4 | x4 | x2[K:treble] x2 | x4 | x4 |[K:bass] x4 | %41
 x4 | x4 | x4 | x[K:treble] x3 | x4 | z[K:bass] z[K:treble] [CDF]2 | [CDF]4 | x4 |[K:bass] x4 | %50
 x4 | D,3 z | x4 | x4 | x4 | x4 | x[K:treble] x[K:bass] x[K:treble] x | %57
[K:bass] x[K:treble] x[K:bass] x[K:treble] x |[K:bass] x[K:treble] x[K:bass] x[K:treble] x | %59
[K:bass] x[K:treble] x[K:bass] x[K:treble] x |[K:bass] x4 | x4 | x2[K:treble] x2 | x4 | %64
[K:bass] x4 | x4 |[K:treble] G,4 | G,4 |[K:bass] x4 | x4 |[K:treble] G,4 | G,4 |[K:bass] x4 | x4 | %74
[K:treble] x3[K:bass] x | x4 | x4 | x4 | x4 | x3[K:treble] x | x4 | x4 | x2/3[K:bass] x10/3 | %83
 x2[K:treble] x2 |[K:bass] x4 |] %85
V:4
!8va(! x3!8va)! x | x4 | x4 | x!8va(! x3 | x3!8va)! x | x4 | x3!8va(! x | x4 | x3!8va)! x | x4 | %10
 x4 | x!8va(! x3 | x3!8va)! x | x4 | x4 | x3!8va(! x | x4!8va)! | x4 | x4 |!8va(! x4 | x4!8va)! | %21
 x4 | x4 | x4 | x4 | x4 | x4 | x4 | x!8va(! x2!8va)! x | x!8va(! x2!8va)! x | x!8va(! x2!8va)! x | %31
 x4 | x4 | x4 | x4 | x4 | x4 | x4 | x4 | x4 | x4 | x4 | x4 | x4 | x!8va(! x3!8va)! | x!8va(! x3 | %46
 x4 | x4 | x3!8va)! x | x4 | x4 | x!8va(! x3 | x3!8va)! x | x4 | x4 | x!8va(! x3 | x4!8va)! | %57
 x!8va(! x3 | x4!8va)! | x!8va(! x3 | x4 | x4 | x4 | x4 | x2!8va)! x2 | [EG]2 [DF]2 | %66
 G z!8va(! z2 | x2!8va)! x2 | x4 |!8va(! x4 | x4!8va)! | x4 | x4 |!8va(! x4 | x3!8va)! x | x4 | %76
 x3[K:bass] x | x4 | x2[K:treble] x2 | x4 |!8va(! x4 | x4 | x/3!8va)! x11/3 | x2!8va(! x2!8va)! | %84
[K:bass] x4 |] %85

